packages/icons/plugins/shared.svg

<svg width="19" height="18" viewBox="0 0 19 18" xmlns="http://www.w3.org/2000/svg">
<g>
        <g clip-path="url(#clip0_4018_10794)">
            <path
                fill-rule="evenodd"
                clip-rule="evenodd"
                d="M16.8449 3.38244L2.92483 7.92639L6.32181 9.95786C6.54825 10.0933 6.68688 10.3377 6.68688 10.6015V12.8779L8.98652 11.9452C9.19775 11.8595 9.43648 11.8746 9.63529 11.9861L14.8428 14.9067L16.8449 3.38244ZM17.1836 2.00958C17.721 1.83413 18.252 2.29389 18.1552 2.85093L15.9163 15.7386C15.8277 16.2484 15.2618 16.5175 14.8105 16.2644L9.23702 13.1385L6.51877 14.241C6.02564 14.441 5.48688 14.0782 5.48688 13.546V10.8568L1.46066 8.449C0.90841 8.11874 1.00114 7.29202 1.61286 7.09234L17.1836 2.00958ZM14.6798 5.65582C14.8971 5.90598 14.8705 6.28494 14.6203 6.50226L10.3858 10.1807C10.1357 10.398 9.75669 10.3714 9.53938 10.1213C9.32206 9.87109 9.34869 9.49213 9.59886 9.27482L13.8334 5.59634C14.0835 5.37902 14.4625 5.40565 14.6798 5.65582Z"
                fill="white"
            />
        </g>
        <defs>
            <clipPath id="clip0_4018_10794">
                <rect width="18" height="18" fill="white" transform="translate(0.5)" />
            </clipPath>
        </defs>
    </g>
</svg>

<svg xmlns="http://www.w3.org/2000/svg" width="19" height="18">
    <g clip-path="url(#shared_svg__a)">
        <path fill="#fff" fill-rule="evenodd" d="M16.845 3.382 2.925 7.926l3.397 2.032a.75.75 0 0 1 .365.643v2.277l2.3-.933a.75.75 0 0 1 .648.041l5.208 2.92 2.002-11.524Zm.339-1.372a.75.75 0 0 1 .971.84l-2.239 12.89a.75.75 0 0 1-1.106.525L9.237 13.14l-2.718 1.1a.75.75 0 0 1-1.032-.695v-2.69L1.46 8.45a.75.75 0 0 1 .152-1.357l15.57-5.082ZM14.68 5.656a.6.6 0 0 1-.06.846l-4.234 3.679a.6.6 0 0 1-.787-.906l4.234-3.679a.6.6 0 0 1 .847.06Z" clip-rule="evenodd"/>
    </g>
    <defs>
        <clipPath id="shared_svg__a">
            <path fill="#fff" d="M0 0h18v18H0z" transform="translate(.5)"/>
        </clipPath>
    </defs>
</svg>
